X: 1669
T: Sanma ki Mihr-i Muhabbet
C: Ahmet Avni Konuk
O: Turkey
F: http://compmusic.upf.edu/node/140
N: zavil--kupe--devrirevanihindi--sanma_ki_mihr-i--ahmet_avni_konuk
N: makam= zavil
N: form= kupe
N: usul= devrirevanihindi = 14/8
M: 14/8
L: 1/16
K: C ^9/8f   
Q: 1/4=102
%%MIDI tuningsystem comma53
g4 g2d4e2 f2g4g2 a2ba g2z2  | a2b2 c'2c'_1/4b baab agg2 fgag g6z2  | 
w:  San ma  ki  *  *  mihr_  |  i  *  mu hab *  *  *  *  *  *  *  bet   | 
e2e2 f2g2 fef2 e2a2 g2f2 agfe d2z2  | \
w:  cevr_ *  i le  *  *  *  *  zâ  | 
efe2 f2g4a2 b2a2 g2f2 g6z2  | 
w:  il  *  *  *  *  o *  lur    | 
e2e2 f2g6 a2a2 g2f2 e2^3/4fe d2z2  | \
w:  Nâ *  le  i  *  âh_  | 
d4 d2d2 g2=f2 e2d4{e}d3^c_7/8BA G2z2  | 
w:  ü  fe ga *  *  *  nım   | 
c4 c2dc cBd2 BAB2 d2d2 d/^c/d/e/dc _7/8BAG2  | 
w:  nağ me  i  *  *  *  *  *  *  Zâ  | 
A_7/8BAB AGAc _1/4BAAG GFG2 F2AG G6z2  | |


